icons/camera-switch-line.svg

<svg xmlns="http://www.w3.org/2000/svg" width="24" height="24" fill="none"><g clip-path="url(#a)"><g><path fill="#121212" d="M9.828 5L7.828 7H4V19H20V7H16.172L14.172 5H9.828ZM9 3H15L17 5H21C21.2652 5 21.5196 5.10536 21.7071 5.29289C21.8946 5.48043 22 5.73478 22 6V20C22 20.2652 21.8946 20.5196 21.7071 20.7071C21.5196 20.8946 21.2652 21 21 21H3C2.73478 21 2.48043 20.8946 2.29289 20.7071C2.10536 20.5196 2 20.2652 2 20V6C2 5.73478 2.10536 5.48043 2.29289 5.29289C2.48043 5.10536 2.73478 5 3 5H7L9 3ZM9.64 7.53C10.8181 6.96925 12.1572 6.84558 13.4181 7.18108C14.6789 7.51658 15.7795 8.28941 16.5231 9.36151C17.2667 10.4336 17.605 11.7351 17.4775 13.0336C17.3499 14.3322 16.765 15.543 15.827 16.45L13.75 12.6H15.499L15.5 12.5C15.5001 11.9162 15.3542 11.3417 15.0755 10.8287C14.7968 10.3157 14.3942 9.88058 13.9044 9.56293C13.4146 9.24527 12.8532 9.05518 12.2711 9.00995C11.6891 8.96473 11.105 9.06581 10.572 9.304L9.64 7.53ZM14.317 17.49C13.1417 18.0369 11.8111 18.1512 10.5598 17.8126C9.30849 17.474 8.21701 16.7043 7.47793 15.6393C6.73886 14.5744 6.39969 13.2826 6.52027 11.9919C6.64086 10.7012 7.21344 9.49463 8.137 8.585L10.25 12.5H8.5C8.49981 13.08 8.64375 13.6509 8.91886 14.1614C9.19397 14.672 9.59164 15.1061 10.0761 15.4249C10.5606 15.7437 11.1167 15.9371 11.6944 15.9878C12.2722 16.0384 12.8535 15.9447 13.386 15.715L14.317 17.489V17.49Z"/></g></g><defs><clipPath id="a"><rect width="24" height="24" fill="white"/></clipPath></defs></svg>

<svg width="24" height="24" fill="none" xmlns="http://www.w3.org/2000/svg"><g clip-path="url(#a)"><path d="m9.828 5-2 2H4v12h16V7h-3.828l-2-2H9.828ZM9 3h6l2 2h4a1 1 0 0 1 1 1v14a1 1 0 0 1-1 1H3a1 1 0 0 1-1-1V6a1 1 0 0 1 1-1h4l2-2Zm.64 4.53a5.5 5.5 0 0 1 6.187 8.92L13.75 12.6h1.749l.001-.1a3.5 3.5 0 0 0-4.928-3.196L9.64 7.53Zm4.677 9.96a5.5 5.5 0 0 1-6.18-8.905L10.25 12.5H8.5a3.5 3.5 0 0 0 4.886 3.215l.931 1.774v.001Z" /></g><defs><clipPath id="a"><path fill="#fff" d="M0 0h24v24H0z"/></clipPath></defs></svg>
